Yaru++/apps/16/postman.svg

<svg height="16" viewBox="0 0 16 16" width="16" xmlns="http://www.w3.org/2000/svg">
  <g fill="#808080">
    <path d="m0 15.984 1.059-1.294 1.347 1.31z"/>
    <path d="m1.34 14.457 1.48 1.559c.054-.418-.143-.91-.338-1.585 3.346-.728 9.096-5.915 10.471-9.384l-5.512 4.758c-.675.321-1.313.453-1.921.39z"/>
    <path d="m6.922 8.74-1.016 1.018c1.157 0 1.282-.133 1.613-.421l5.244-4.677c.52-.442-.441-1.351-1.012-.805z"/>
    <path d="m6.584 8.506c-.639.517-1.506.674-2.623.596l1.637-1.557c3.3-3.389 5.439-4.833 6.309-4.288z"/>
    <path d="m13.413 2.361 1.402 1.494c-1.48.363-2.869-.533-2.714-1.949.39-2.157 2.558-2.235 3.155-1.39q-.805.792-1.843 1.845z"/>
    <path d="m15.191 3.608-1.298-1.299 1.7-1.624c.74 1.091.445 2.259-.402 2.923z"/>
  </g>
</svg>

<svg xmlns="http://www.w3.org/2000/svg" xmlns:xlink="http://www.w3.org/1999/xlink" width="16" height="16" viewBox="0 0 16 16">
 <defs>
  <style id="current-color-scheme" type="text/css">
   .ColorScheme-Text { color: #808080; } .ColorScheme-Highlight { color: #5294e2; }
  </style>
 </defs>
 <g fill="currentColor" class="ColorScheme-Text"> 
   <path d="M 0 15.984 L 1.059 14.69 L 2.406 16 L 0 15.984 Z"/>
   <path d="M 1.34 14.457 L 2.82 16.016 C 2.874 15.598 2.677 15.106 2.482 14.431 C 5.828 13.703 11.578 8.516 12.953 5.047 L 7.441 9.805 C 6.766 10.126 6.128 10.258 5.52 10.195 L 1.34 14.457 Z"/>
   <path d="M 6.922 8.74 L 5.906 9.758 C 7.063 9.758 7.188 9.625 7.519 9.337 L 12.763 4.66 C 13.283 4.218 12.322 3.309 11.751 3.855 L 6.922 8.74 Z"/>
   <path d="M 6.584 8.506 C 5.945 9.023 5.078 9.18 3.961 9.102 L 5.598 7.545 C 8.898 4.156 11.037 2.712 11.907 3.257 L 6.584 8.506 Z"/>
   <path d="M 13.413 2.361 L 14.815 3.855 C 13.335 4.218 11.946 3.322 12.101 1.906 C 12.491 -0.251 14.659 -0.329 15.256 0.516 Q 14.451 1.308 13.413 2.361 Z"/>
   <path d="M 15.191 3.608 L 13.893 2.309 L 15.593 0.685 C 16.333 1.776 16.038 2.944 15.191 3.608 Z"/>
 </g>
</svg>
